X: 498
T: Waltz for the Valeta
S:Percy Brown
M:3/4
L:1/8
K:D
|: D2 F2 A2 | A4 B2 | B6 | A6 | D2 F2 A2 | A4 B2 | B6 | A6 |\
   d2 A2 d2 | c6 | B2 G2 B2 | A6 |
[1 D4 F2 | E4 D2 | A2 B2 A2 | G2 F2 E2 :|\
[2 G2 F2 B2 | F4 E2 | D2 F2 A2 | d6 |:\
dd d2 d2 | cc c2 c2 |
BB B2 B2 | A6 |\
[1 GG G2 G2 | FF F2 F2 | E2 e2 d2 | c2 B2 A2 :|\
[2 G2 F2 B2 | F4 E2 | D2 F2 A2 | d6 :|

%%sep 1 1 500

